static/img/Icon-search.svg

<svg height="20" viewBox="0 0 20 20" width="20" xmlns="http://www.w3.org/2000/svg" xmlns:xlink="http://www.w3.org/1999/xlink"><mask id="a" fill="#fff"><path d="m0 0h28v29h-28z" fill="#fff" fill-rule="evenodd"/></mask><path d="m13.8778709 18.6129032c-4.35082796 0-7.8778709-3.4950674-7.8778709-7.8064516 0-4.31138416 3.52704294-7.8064516 7.8778709-7.8064516 4.3508279 0 7.8778709 3.49506744 7.8778709 7.8064516 0 4.3113842-3.527043 7.8064516-7.8778709 7.8064516zm0-.8673835c3.8674026 0 7.0025519-3.1067266 7.0025519-6.9390681 0-3.83234148-3.1351493-6.93906809-7.0025519-6.93906809s-7.00255191 3.10672661-7.00255191 6.93906809c0 3.8323415 3.13514931 6.9390681 7.00255191 6.9390681zm-.3778709 1.2544803h.4323402c.2761423 0 .5.2238576.5.5v6.0967742c0 .2761424-.2238577.5-.5.5h-.4323402c-.2761424 0-.5-.2238576-.5-.5v-6.0967742c0-.2761424.2238576-.5.5-.5z" fill="#9b9da0" mask="url(#a)" transform="matrix(.70710678 -.70710678 .70710678 .70710678 -9.222529 10.074261)"/></svg>

<?xml version="1.0" encoding="UTF-8"?>
<svg width="20px" height="20px" viewBox="0 0 20 20" version="1.1" xmlns="http://www.w3.org/2000/svg" xmlns:xlink="http://www.w3.org/1999/xlink">
    <!-- Generator: Sketch 52.6 (67491) - http://www.bohemiancoding.com/sketch -->
    <title>Icon-searc</title>
    <desc>Created with Sketch.</desc>
    <defs>
        <rect id="path-1" x="0" y="0" width="28" height="29"></rect>
    </defs>
    <g id="Page-1" stroke="none" stroke-width="1" fill="none" fill-rule="evenodd">
        <g id="Mobile-Navigation" transform="translate(-275.000000, -47.000000)">
            <g id="NAVIGATION" transform="translate(0.000000, -1.000000)">
                <g id="Icon-searc" transform="translate(272.000000, 44.000000)">
                    <mask id="mask-2" fill="white">
                        <use xlink:href="#path-1"></use>
                    </mask>
                    <g id="Background"></g>
                    <path d="M13.8778709,18.6129032 C9.52704294,18.6129032 6,15.1178358 6,10.8064516 C6,6.49506744 9.52704294,3 13.8778709,3 C18.2286988,3 21.7557418,6.49506744 21.7557418,10.8064516 C21.7557418,15.1178358 18.2286988,18.6129032 13.8778709,18.6129032 Z M13.8778709,17.7455197 C17.7452735,17.7455197 20.8804228,14.6387931 20.8804228,10.8064516 C20.8804228,6.97411012 17.7452735,3.86738351 13.8778709,3.86738351 C10.0104683,3.86738351 6.87531899,6.97411012 6.87531899,10.8064516 C6.87531899,14.6387931 10.0104683,17.7455197 13.8778709,17.7455197 Z M13.5,19 L13.9323402,19 C14.2084825,19 14.4323402,19.2238576 14.4323402,19.5 L14.4323402,25.5967742 C14.4323402,25.8729166 14.2084825,26.0967742 13.9323402,26.0967742 L13.5,26.0967742 C13.2238576,26.0967742 13,25.8729166 13,25.5967742 L13,19.5 C13,19.2238576 13.2238576,19 13.5,19 Z" id="Search" fill="#9B9DA0" fill-rule="nonzero" mask="url(#mask-2)" transform="translate(13.877871, 14.548387) rotate(-45.000000) translate(-13.877871, -14.548387) "></path>
                </g>
            </g>
        </g>
    </g>
</svg>
